X:1
T:Jacob Collier IHarmU You Have Overcome
T:Jacob Collier IHarmU You Have Overcome
%%score 1 2 3
L:1/8
Q:1/4=50
M:2/4
K:G
V:1 treble nm="Voice" snm="Vo."
V:2 bass nm="Men" snm="M."
V:3 bass nm="Men" snm="M."
V:1
 z4 |!mf! [B,DG]4 | [A,DF]4 | [B,EG]4 | [A,DF]2 [A,DG]2 | [G,CE]4 | [G,A,F]2 [G,B,G]2 | %7
!<(! [=F,-A,-C-E-G-A]4!<)! |"^cresc." [F,A,CEGA]4 |!f! [A,DFAd]2 [A,DFBe]2 |!ff! [A,DFABd]4 | %11
!mf![Q:1/4=35] [_B,_E_Bc][CEGB] [=B,DFA][A,=FAc] | [_B,C_Ec][B,CE_B][Q:1/4=25] [C=FAc][C=EAd] | %13
!f! !fermata![DFAd]4 | z4 | z4 | z4 | z4 | z4 | z4 | z4 | z4 | z4 | z4 | z4 | z4 | z4 | z4 | z4 | %29
 z4 | z4 | z4 | z4 |] %33
V:2
 z4 | [G,,D,]4 | [F,,D,]4 | [E,,C,E,]2 [E,,B,,D,]2 | [D,,D,]2 [G,,D,G,]2 | [C,,C,E,]4- | %6
w: |I|V6|IV^M65 vi7|V I^add9|IV|
 [C,,C,E,]4 | [=F,,C,]4- | [F,,C,]4 | [D,,D,]4- | [D,,D,]4 | [_B,,=F,][_E,,G,] [=E,,G,][A,,F,] | %12
w: IV|bVII^M9|bVII^M9|V^69|V^69|bVIsus2^add6 iv65 vi9 bVII6|
 [_A,,=F,][G,,G,] [C,,G,][C,G,] | [G,,G,]4 | z4 | z4 | z4 | z4 | z4 | z4 | z4 | z4 | z4 | z4 | z4 | %25
w: bvii^11 bVI^M6 bVII^64add9 IV^69|I||||||||||||
 z4 | z4 | z4 | z4 | z4 | z4 | z4 | z4 |] %33
w: ||||||||
V:3
!f! z z z (3:2:2G,/A, |{A,} B,{B,}D A,2- | A,2 z (3:2:2G,/A, | %3
{A,} (9:4:8(1:1:3B,/4A,/4G,/4 G,2 z z/ z D, | A,/>B,/A,/4G,/4E,/ D,G, | C3/2C3/2B, | %6
 C/4B,/4A,/4G,/4A,/4B,/4 z/ A,G, | z A,3- | A, z z G, | (3A,/B,/A,/- A,3- | A,2 z G | G4- | G4 | %13
 z4 | z4 | z4 | z4 | z4 | z4 | z4 | z4 | z4 | z4 | z4 | z4 | z4 | z4 | z4 | z4 | z4 | z4 | z4 | %32
 z4 |] %33

